X:1
T:Title
%%score { ( 1 3 ) | 2 }
L:1/8
M:4/4
K:G
V:1 treble nm="Grand Piano"
V:3 treble 
V:2 bass 
V:1
 z4 z2[Q:1/4=106] D2 | G2 G2 G2 B2 | [EA]2 E2 [EA]3 [EG] | F2 c2 B2 A2 |[M:3/4] B6 |[M:1/4] D2 | %6
[M:4/4] G2 G2 G2 B2 | [EA]2 E2 [EA]3 [EG] | [DF]2 [Dc]2 [GB]3 [DA] |[M:3/4] [B,DG]6 |[M:1/4] d2 | %11
[M:4/4] d4 B2 G>G | [EA]4 [EG]2 [CE]>[CE] | [B,D]2 [B,D]2 [B,G]2 [DB]2 |[M:3/4] [DFA]6 | %15
[M:1/4] [Fd]2 |[M:4/4] d4 B2 G>G | [EA]4 [EG]2 E>E | D2 c2 B2 A2 |[M:3/4] [B,G]6 |] %20
V:2
 z4 z2 [G,B,]2 | [G,B,D]2 [G,B,D]2 [G,B,D]2 [G,D]2 | [C,C]2 [C,C]2 [C,C]3 [C,C] | %3
 [D,CD]2 [D,A,D]2 [D,G,D]2 [D,F,D]2 |[M:3/4] [G,D]6 |[M:1/4] [G,B,]2 | %6
[M:4/4][K:treble] [G,B,D]2 [G,B,D]2 [G,B,D]2 [G,DG]2 | [C,C]2 [C,C]2 [C,C]3 [C,C] | %8
 [D,C]2 [D,A,]2 [D,D]3 [D,C] |[M:3/4] [G,,G,]6 |[M:1/4][K:treble] [G,B,G]2 | %11
[M:4/4] [G,B,G]4 [G,DG]2 [G,B,D]>[G,B,D] | [C,C]4 [C,C]2 [C,G,]>[C,G,] | %13
 [G,,G,]2 [G,,G,]2 [G,,G,]2 G,,2 |[M:3/4] D,6 |[M:1/4] D,2 | %16
[M:4/4][K:treble] [G,B,G]4 [G,DG]2[K:bass] [G,B,D]>[G,B,D] | [C,C]4 [C,C]2 [C,G,C]>[C,G,C] | %18
 [D,G,B,]2 [D,A,D]2 [D,G,D]2 [D,F,C]2 |[M:3/4] [G,,G,]6 |] %20
V:3
 x8 | x8 | x8 | x8 |[M:3/4] x6 |[M:1/4] x2 |[M:4/4] x8 | x8 | x8 |[M:3/4] x6 |[M:1/4] x2 | %11
[M:4/4] x8 | x8 | x8 |[M:3/4] x6 |[M:1/4] DC |[M:4/4] x8 | x8 | x8 |[M:3/4] x6 |] %20

